X:1
T:Title
%%score 1 { ( 2 3 6 ) | ( 4 5 7 ) }
L:1/8
Q:1/4=100
M:4/4
K:Eb
V:1 treble nm="Choir Aahs"
V:2 treble nm="Grand Piano"
V:3 treble 
V:6 treble 
V:4 bass 
V:5 bass 
V:7 bass 
V:1
 E2 EF G2 GA | B2 e2 B4 | E3 F G2 G2 | GF F>G F4 | E2 EF G2 GA | B2 e2 B4 | E3 F G2 G2 | %7
w: E.~O.~Excell * * * * *|||||||
 BG F>E E4 | F2 =EF B4 | G2 _G=G B4 | d3 d e3 c |[M:9/8] B8- B |[M:4/4] e2 dc B2 AA | G2 F2 E4 | %14
w: |||||||
 E3 F G2 G2 | BG F>E E4 |] %16
w: ||
V:2
 E2 z2 G2 z2 | z G z [GB] z GGG | E4 G2 G2 | .G2 z2[K:bass] .E2 z2 | E2[K:treble] z2 G2 z2 | %5
 z G z [GB] z GGG | E4[K:treble] G2 G2 | .B2 z2 z4 | z4 [B,B]4 | %9
 [B,G]2 [=A,_G][B,=G] z [EG]/G/ [EG][EG] | [Dd]4 [Ee]4 |[M:9/8] B6 z3 | %12
[M:4/4] z Bdc .[B,EGB]2 z E | [B,G]2 [A,F]2[K:bass] E4 | E4[K:treble] G2 G2 | .B2 z2[K:bass] z4 |] %16
V:3
 z B,EF z EGA | [B,B]2 [Ee]2 [B,B]4 | z z/ B,/- B,/ z/ F z E z E | %3
 =A,-[A,-F] [A,-F]3/2[A,-G]/4[A,F]/4[K:bass] [_A,B,]-[A,-B,-D][A,-B,C][A,B,] | %4
 z B,[K:treble]EF z EGA | [B,B]2 [Ee]2 [B,B]4 | E,3- [E,CF][K:treble] z E z E | %7
 B,-[B,G] F>E [E,G,B,E]4 | [A,F]2 [G,=E][=A,F] z [DF]/F/ [DF][DF] | z4 [B,B]4 | %10
 z [FB]/B/ [FB][Dd] z [F=A]/A/ Ac |[M:9/8] B,CD EFG A3 |[M:4/4] [Ee]2 z2 z2 [CA]2 | %13
 z D z[K:bass] B, z B,B,B, | E,3- [E,CF][K:treble] z E z E | B,-[B,G] F>E[K:bass] [E,G,B,E]4 |] %16
V:4
 z G, z2 z[K:treble] B,[B,E][B,F] | E,-[E,-E] [G,,E,]2 z EEE | E,3- [B,,E,A,] z B, z B, | %3
 [F,,E,]4 [B,,,B,,]4 | z G, z2 z B,[K:treble][B,E][B,F] | E,-[E,-E] [G,,E,]2 z EEE | %6
 z2 z/ .B,3/2 z4 | z2 [A,B,]2 E,,4 | z B,,B,,B,, z z/ D/ B,,B,, | z E,E,E, z z/ E/ E,E, | %10
 z z/ F/ F,F, z z/[K:treble] F/ [F,F][K:bass][F,EF] |[M:9/8] [B,,,B,,]8- [B,,,B,,] | %12
[M:4/4] z[K:treble] G[DB][CA][K:bass] [E,,E,]2 [E,,E,]2 | [B,,,B,,]2 [B,,,B,,]2 z G,G,G, | %14
 z2 z/ .B,3/2 z4 | z2 [A,B,]2 E,,4 |] %16
V:5
 [E,,E,]8[K:treble] | E,,2 z2 [E,,E,]4 | G,,4 [E,,E,]4 | x8 | [E,,E,]4 [E,,E,]4[K:treble] | %5
 E,,2 z2 [E,,E,]4 | z z/ B,/- B,/ z/ A,, z2 z B, | [B,,,B,,]4 z4 | z4 z B,, z2 | z4 z E, z2 | %10
 z F, z2 z F,[K:treble] z2[K:bass] |[M:9/8] x9 |[M:4/4] [E,,E,]4[K:treble][K:bass] z4 | %13
 z4 [E,,E,]4 | z z/ B,/- B,/ z/ A,, z B, z B, | [B,,,B,,]4 z4 |] %16
V:6
 x8 | x8 | z2 z/ .B,3/2 z4 | x4[K:bass] x4 | x2[K:treble] x6 | x8 | x4[K:treble] x4 | x8 | x8 | %9
 x8 | x8 |[M:9/8] x9 |[M:4/4] x8 | x3[K:bass] x5 | x4[K:treble] x4 | x4[K:bass] x4 |] %16
V:7
 x5[K:treble] x3 | x8 | x8 | x8 | x6[K:treble] x2 | x8 | G,,4 [B,,,B,,]4 | x8 | B,,,4 B,,,4 | %9
 E,,4 E,,4 | F,,4 F,,4[K:treble][K:bass] |[M:9/8] x9 |[M:4/4] x[K:treble] x3[K:bass] x4 | x8 | %14
 G,,4 [B,,,B,,]4 | x8 |] %16

